svgs/sharp-solid/trademark.svg

<svg xmlns="http://www.w3.org/2000/svg" viewBox="0 0 640 512"><!--! Font Awesome Pro 6.6.0 by @fontawesome - https://fontawesome.com License - https://fontawesome.com/license (Commercial License) Copyright 2024 Fonticons, Inc. --><path d="M0 96l32 0 64 0 64 0 64 0 32 0 0 64-32 0-64 0 0 224 0 32-64 0 0-32 0-224-64 0L0 160 0 96zm288 32l0-32 48 0 9.6 12.8L464 266.7 582.4 108.8 592 96l48 0 0 32 0 256 0 32-64 0 0-32 0-160L489.6 339.2 464 373.3l-25.6-34.1L352 224l0 160 0 32-64 0 0-32 0-256z"/></svg>

<svg xmlns="http://www.w3.org/2000/svg" viewBox="0 0 640 512"><!--! Font Awesome Pro 6.4.0 by @fontawesome - https://fontawesome.com License - https://fontawesome.com/license (Commercial License) Copyright 2023 Fonticons, Inc. --><path d="M0 96H32 96h64 64 32v64H224 160V384v32H96V384 160H32 0V96zm288 32V96h48l9.6 12.8L464 266.7 582.4 108.8 592 96h48v32V384v32H576V384 224L489.6 339.2 464 373.3l-25.6-34.1L352 224V384v32H288V384 128z"/></svg>
